svgs/duotone/border-left.svg

<svg xmlns="http://www.w3.org/2000/svg" viewBox="0 0 448 512"><!-- Font Awesome Pro 6.0.0-alpha2 by @fontawesome - https://fontawesome.com License - https://fontawesome.com/license (Commercial License) --><defs><style>.fa-secondary{opacity:.4}</style></defs><path d="M240 224H208C199.125 224 192 231.125 192 240V272C192 280.875 199.125 288 208 288H240C248.875 288 256 280.875 256 272V240C256 231.125 248.875 224 240 224ZM336 224H304C295.125 224 288 231.125 288 240V272C288 280.875 295.125 288 304 288H336C344.875 288 352 280.875 352 272V240C352 231.125 344.875 224 336 224ZM432 224H400C391.125 224 384 231.125 384 240V272C384 280.875 391.125 288 400 288H432C440.875 288 448 280.875 448 272V240C448 231.125 440.875 224 432 224ZM144 224H112C103.125 224 96 231.125 96 240V272C96 280.875 103.125 288 112 288H144C152.875 288 160 280.875 160 272V240C160 231.125 152.875 224 144 224ZM240 416H208C199.125 416 192 423.125 192 432V464C192 472.875 199.125 480 208 480H240C248.875 480 256 472.875 256 464V432C256 423.125 248.875 416 240 416ZM336 416H304C295.125 416 288 423.125 288 432V464C288 472.875 295.125 480 304 480H336C344.875 480 352 472.875 352 464V432C352 423.125 344.875 416 336 416ZM432 416H400C391.125 416 384 423.125 384 432V464C384 472.875 391.125 480 400 480H432C440.875 480 448 472.875 448 464V432C448 423.125 440.875 416 432 416ZM432 320H400C391.125 320 384 327.125 384 336V368C384 376.875 391.125 384 400 384H432C440.875 384 448 376.875 448 368V336C448 327.125 440.875 320 432 320ZM432 128H400C391.125 128 384 135.125 384 144V176C384 184.875 391.125 192 400 192H432C440.875 192 448 184.875 448 176V144C448 135.125 440.875 128 432 128ZM240 320H208C199.125 320 192 327.125 192 336V368C192 376.875 199.125 384 208 384H240C248.875 384 256 376.875 256 368V336C256 327.125 248.875 320 240 320ZM240 128H208C199.125 128 192 135.125 192 144V176C192 184.875 199.125 192 208 192H240C248.875 192 256 184.875 256 176V144C256 135.125 248.875 128 240 128ZM144 416H112C103.125 416 96 423.125 96 432V464C96 472.875 103.125 480 112 480H144C152.875 480 160 472.875 160 464V432C160 423.125 152.875 416 144 416ZM240 32H208C199.125 32 192 39.125 192 48V80C192 88.875 199.125 96 208 96H240C248.875 96 256 88.875 256 80V48C256 39.125 248.875 32 240 32ZM336 32H304C295.125 32 288 39.125 288 48V80C288 88.875 295.125 96 304 96H336C344.875 96 352 88.875 352 80V48C352 39.125 344.875 32 336 32ZM432 32H400C391.125 32 384 39.125 384 48V80C384 88.875 391.125 96 400 96H432C440.875 96 448 88.875 448 80V48C448 39.125 440.875 32 432 32ZM144 32H112C103.125 32 96 39.125 96 48V80C96 88.875 103.125 96 112 96H144C152.875 96 160 88.875 160 80V48C160 39.125 152.875 32 144 32Z" class="fa-secondary"/><path d="M64 64V448C64 465.673 49.673 480 32 480H32C14.327 480 0 465.673 0 448V64C0 46.327 14.327 32 32 32H32C49.673 32 64 46.327 64 64Z" class="fa-primary"/></svg>

<svg xmlns="http://www.w3.org/2000/svg" viewBox="0 0 448 512"><!--! Font Awesome Pro 6.0.0-alpha3 by @fontawesome - https://fontawesome.com License - https://fontawesome.com/license (Commercial License) --><defs><style>.fa-secondary{opacity:.4}</style></defs><path class="fa-primary" d="M64 63.1V448C64 465.7 49.67 480 32 480s-32-14.33-32-31.1V63.1C0 46.33 14.33 32 32 32S64 46.33 64 63.1z"/><path class="fa-secondary" d="M240 224h-32C199.1 224 192 231.1 192 240v32C192 280.9 199.1 288 208 288h32C248.9 288 256 280.9 256 272v-32C256 231.1 248.9 224 240 224zM336 224h-32C295.1 224 288 231.1 288 240v32C288 280.9 295.1 288 304 288h32C344.9 288 352 280.9 352 272v-32C352 231.1 344.9 224 336 224zM432 224h-32C391.1 224 384 231.1 384 240v32C384 280.9 391.1 288 400 288h32C440.9 288 448 280.9 448 272v-32C448 231.1 440.9 224 432 224zM144 224h-32C103.1 224 96 231.1 96 240v32C96 280.9 103.1 288 112 288h32C152.9 288 160 280.9 160 272v-32C160 231.1 152.9 224 144 224zM240 416h-32C199.1 416 192 423.1 192 432v32C192 472.9 199.1 480 208 480h32c8.875 0 16-7.125 16-16v-32C256 423.1 248.9 416 240 416zM336 416h-32c-8.875 0-16 7.125-16 16v32c0 8.875 7.125 16 16 16h32c8.875 0 16-7.125 16-16v-32C352 423.1 344.9 416 336 416zM432 416h-32c-8.875 0-16 7.125-16 16v32c0 8.875 7.125 16 16 16h32c8.875 0 16-7.125 16-16v-32C448 423.1 440.9 416 432 416zM432 320h-32c-8.875 0-16 7.125-16 16v32c0 8.875 7.125 16 16 16h32c8.875 0 16-7.125 16-16v-32C448 327.1 440.9 320 432 320zM432 128h-32C391.1 128 384 135.1 384 144v32C384 184.9 391.1 192 400 192h32C440.9 192 448 184.9 448 176v-32C448 135.1 440.9 128 432 128zM240 320h-32C199.1 320 192 327.1 192 336v32C192 376.9 199.1 384 208 384h32c8.875 0 16-7.125 16-16v-32C256 327.1 248.9 320 240 320zM240 128h-32C199.1 128 192 135.1 192 144v32C192 184.9 199.1 192 208 192h32C248.9 192 256 184.9 256 176v-32C256 135.1 248.9 128 240 128zM144 416h-32C103.1 416 96 423.1 96 432v32C96 472.9 103.1 480 112 480h32C152.9 480 160 472.9 160 464v-32C160 423.1 152.9 416 144 416zM240 32h-32C199.1 32 192 39.12 192 48v32C192 88.88 199.1 96 208 96h32C248.9 96 256 88.88 256 80v-32C256 39.12 248.9 32 240 32zM336 32h-32C295.1 32 288 39.12 288 48v32C288 88.88 295.1 96 304 96h32C344.9 96 352 88.88 352 80v-32C352 39.12 344.9 32 336 32zM432 32h-32C391.1 32 384 39.12 384 48v32C384 88.88 391.1 96 400 96h32C440.9 96 448 88.88 448 80v-32C448 39.12 440.9 32 432 32zM144 32h-32C103.1 32 96 39.12 96 48v32C96 88.88 103.1 96 112 96h32C152.9 96 160 88.88 160 80v-32C160 39.12 152.9 32 144 32z"/></svg>
